source/img/masks/program-content-mask-desktop.svg

<svg xmlns="http://www.w3.org/2000/svg" viewBox="0 0 321 123" preserveAspectRatio="none"><path fill="#fff" d="M0 12C0 5.373 5.373 0 12 0h170c6.627 0 12 5.373 12 12v29H0z"/><g clip-path="url(#a)"><path fill="#fff" d="M212 41c-9.941 0-18-8.059-18-18v18z"/></g><path fill="#fff" d="M0 41h309c6.627 0 12 5.373 12 12v58c0 6.627-5.373 12-12 12H12c-6.627 0-12-5.373-12-12z"/><defs><clipPath id="a"><path fill="#fff" d="M194 23h18v18h-18z"/></clipPath></defs></svg>

<svg width="321" height="123" viewBox="0 0 321 123" fill="none" preserveAspectRatio="none" xmlns="http://www.w3.org/2000/svg">
<path d="M0 12C0 5.37258 5.37258 0 12 0H182C188.627 0 194 5.37258 194 12V41H0V12Z" fill="white"/>
<g clip-path="url(#clip0_2369_2609)">
<path d="M212 41C202.059 41 194 32.9411 194 23V41H212Z" fill="white"/>
</g>
<path d="M0 41H309C315.627 41 321 46.3726 321 53V111C321 117.627 315.627 123 309 123H12C5.37259 123 0 117.627 0 111V41Z" fill="white"/>
<defs>
<clipPath id="clip0_2369_2609">
<rect width="18" height="18" fill="white" transform="translate(194 23)"/>
</clipPath>
</defs>
</svg>
